**kern	**kern
*part1	*part1
*staff2	*staff1
*I"Piano	*
*clefF4	*clefG2
*k[b-]	*k[b-]
=1	=1
*^	*^
*tremolo	*	*	*
*	*	*tremolo	*
(32GLLL	1GG	1ee-X	(32e-XLLL
32E-X)	.	.	32g)
32G	.	.	32e-X
32E-X)	.	.	32g)
32G	.	.	32e-X
32E-X)	.	.	32g)
32G	.	.	32e-X
32E-X)	.	.	32g)
32G	.	.	32e-X
32E-X)	.	.	32g)
32G	.	.	32e-X
32E-X)	.	.	32g)
32G	.	.	32e-X
32E-X)	.	.	32g)
32G	.	.	32e-X
32E-X)JJJ	.	.	32g)JJJ
(32GLLL	.	.	(32e-LLL
32E-)	.	.	32g)
32G	.	.	32e-
32E-)	.	.	32g)
32G	.	.	32e-
32E-)	.	.	32g)
32G	.	.	32e-
32E-)	.	.	32g)
32G	.	.	32e-
32E-)	.	.	32g)
32G	.	.	32e-
32E-)	.	.	32g)
32G	.	.	32e-
32E-)	.	.	32g)
32G	.	.	32e-
32E-)JJJ	.	.	32g)JJJ
=	=	=	=
(32F#XLLL	1FF#X	1dd	(32dLLL
32D)	.	.	32a)
32F#X	.	.	32d
32D)	.	.	32a)
32F#X	.	.	32d
32D)	.	.	32a)
32F#X	.	.	32d
32D)	.	.	32a)
32F#X	.	.	32d
32D)	.	.	32a)
32F#X	.	.	32d
32D)	.	.	32a)
32F#X	.	.	32d
32D)	.	.	32a)
32F#X	.	.	32d
32D)JJJ	.	.	32a)JJJ
(32F#LLL	.	.	(32dLLL
32D)	.	.	32a)
32F#	.	.	32d
32D)	.	.	32a)
32F#	.	.	32d
32D)	.	.	32a)
32F#	.	.	32d
32D)	.	.	32a)
32F#	.	.	32d
32D)	.	.	32a)
32F#	.	.	32d
32D)	.	.	32a)
32F#	.	.	32d
32D)	.	.	32a)
32F#	.	.	32d
32D)JJJ	.	.	32a)JJJ
=	=	=	=
(32EnLLL	1EEn	1cc#X	(32c#XLLL
32AA)	.	.	32g)
32En	.	.	32c#X
32AA)	.	.	32g)
32En	.	.	32c#X
32AA)	.	.	32g)
32En	.	.	32c#X
32AA)	.	.	32g)
32En	.	.	32c#X
32AA)	.	.	32g)
32En	.	.	32c#X
32AA)	.	.	32g)
32En	.	.	32c#X
32AA)	.	.	32g)
32En	.	.	32c#X
32AA)JJJ	.	.	32g)JJJ
(32ELLL	.	.	(32c#LLL
32AA)	.	.	32g)
32E	.	.	32c#
32AA)	.	.	32g)
32E	.	.	32c#
32AA)	.	.	32g)
32E	.	.	32c#
32AA)	.	.	32g)
32E	.	.	32c#
32AA)	.	.	32g)
32E	.	.	32c#
32AA)	.	.	32g)
32E	.	.	32c#
32AA)	.	.	32g)
32E	.	.	32c#
32AA)JJJ	.	.	32g)JJJ
=	=	=	=
(32DLLL	1DD	1cc	(32cnLLL
32AA)	.	.	32f#X)
32D	.	.	32cn
32AA)	.	.	32f#X)
32D	.	.	32cn
32AA)	.	.	32f#X)
32D	.	.	32cn
32AA)	.	.	32f#X)
32D	.	.	32cn
32AA)	.	.	32f#X)
32D	.	.	32cn
32AA)	.	.	32f#X)
32D	.	.	32cn
32AA)	.	.	32f#X)
32D	.	.	32cn
32AA)JJJ	.	.	32f#X)JJJ
(32DLLL	.	.	(32cLLL
32GG)	.	.	32f#)
32D	.	.	32c
32GG)	.	.	32f#)
32D	.	.	32c
32GG)	.	.	32f#)
32D	.	.	32c
32GG)	.	.	32f#)
32D	.	.	32c
32GG)	.	.	32f#)
32D	.	.	32c
32GG)	.	.	32f#)
32D	.	.	32c
32GG)	.	.	32f#)
32D	.	.	32c
32GG)JJJ	.	.	32f#)JJJ
=	=	=	=
(32DLLL	1DD	1bn	(32BnLLL
32GG)	.	.	32fn)
32D	.	.	32Bn
32GG)	.	.	32fn)
32D	.	.	32Bn
32GG)	.	.	32fn)
32D	.	.	32Bn
32GG)	.	.	32fn)
32D	.	.	32Bn
32GG)	.	.	32fn)
32D	.	.	32Bn
32GG)	.	.	32fn)
32D	.	.	32Bn
32GG)	.	.	32fn)
32D	.	.	32Bn
32GG)JJJ	.	.	32fn)JJJ
(32DLLL	.	.	(32BLLL
32GG)	.	.	32f)
32D	.	.	32B
32GG)	.	.	32f)
32D	.	.	32B
32GG)	.	.	32f)
32D	.	.	32B
32GG)	.	.	32f)
32D	.	.	32B
32GG)	.	.	32f)
32D	.	.	32B
32GG)	.	.	32f)
32D	.	.	32B
32GG)	.	.	32f)
32D	.	.	32B
32GG)JJJ	.	.	32f)JJJ
=	=	=	=
(32CLLL	1CC	1b-	(32cLLL
32GG)	.	.	32e-X)
32C	.	.	32c
32GG)	.	.	32e-X)
32C	.	.	32c
32GG)	.	.	32e-X)
32C	.	.	32c
32GG)	.	.	32e-X)
32C	.	.	32c
32GG)	.	.	32e-X)
32C	.	.	32c
32GG)	.	.	32e-X)
32C	.	.	32c
32GG)	.	.	32e-X)
32C	.	.	32c
32GG)JJJ	.	.	32e-X)JJJ
(32CLLL	.	.	(32cLLL
32GG)	.	.	32e-)
32C	.	.	32c
32GG)	.	.	32e-)
32C	.	.	32c
32GG)	.	.	32e-)
32C	.	.	32c
32GG)	.	.	32e-)
32C	.	.	32c
32GG)	.	.	32e-)
32C	.	.	32c
32GG)	.	.	32e-)
32C	.	.	32c
32GG)	.	.	32e-)
32C	.	.	32c
32GG)JJJ	.	.	32e-)JJJ
=	=	=	=
16r	1DD	1a-X	16r
(16CLL	.	.	(16dLL
16F	.	.	16c
16CJJ	.	.	16dJJ
16FLL	.	.	16cLL
16C	.	.	16d
16F	.	.	16c
16CJJ	.	.	16dJJ
(32FLLL	.	.	(32cLLL
32C))	.	.	32d))
32F	.	.	32c
32C))	.	.	32d))
32F	.	.	32c
32C))	.	.	32d))
32F	.	.	32c
32C))	.	.	32d))
32F	.	.	32c
32C))	.	.	32d))
32F	.	.	32c
32C))	.	.	32d))
32F	.	.	32c
32C))	.	.	32d))
32F	.	.	32c
32C))JJJ	.	.	32d))JJJ
*	*	*Xtremolo	*
*Xtremolo	*	*	*
*v	*v	*	*
*	*v	*v
=	=
*-	*-
!!!system-decoration: {(s1,s2)}
